X: 2
T: After The Storm
Z: JosephC
S: https://thesession.org/tunes/7933#setting19198
R: reel
M: 4/4
L: 1/8
K: Dmaj
|:"D"dAFA ~D2AD|dAFD "G"GABG|"D"dAFA ~D2(3Bcd|"A"edBA FABc||"D"dAFA ~D2AD|dAFD "G"GABG|"A"ABcd ecde|1"D"fedc d2AB:|2fedc d2(3ABc|||:"D"dAFA eAFA|fAeA dA(3FGA|"A"cAEA eAEA|"G"gAfA "A"eA(3GAB||"D"dAFA eA(3FGA|fAeA dAFA|"G"dBAG "D"FGAd|1fedc d2(3ABc:|2fedc d2AB||
